src/next/cmd/lc_splitwindow.svg

<svg height="24" width="24" xmlns="http://www.w3.org/2000/svg" xmlns:xlink="http://www.w3.org/1999/xlink"><linearGradient id="a" gradientTransform="matrix(22 0 0 .07307694 -2371.8302 41.135978)" gradientUnits="userSpaceOnUse" x1="137.25784" x2="137.25784" y1="260.75122" y2="312.87741"><stop offset="0" stop-color="#b3b3b6"/><stop offset="1" stop-color="#cecece"/></linearGradient><filter id="b"><feGaussianBlur stdDeviation="1.5999062"/></filter><linearGradient id="c" gradientTransform="matrix(.08097133 0 0 .117107 -1.25515 -48.3532)" gradientUnits="userSpaceOnUse" x1="399.77466" x2="399.77466" y1="731.09662" y2="480.60214"><stop offset="0" stop-color="#cbcbcd"/><stop offset=".5" stop-color="#e0e0e2"/><stop offset="1" stop-color="#f2f2f2"/></linearGradient><linearGradient id="d" gradientTransform="matrix(.08097133 0 0 .117107 78.3735 188.5229)" gradientUnits="userSpaceOnUse" x1="-333.0289" x2="-333.0289" y1="-1473.6504" y2="-776.61371"><stop offset="0" stop-color="#fff"/><stop offset=".49140647" stop-color="#fff"/><stop offset="1" stop-color="#dcdcdc"/></linearGradient><g transform="matrix(.25 0 0 .25 2 -1)"><path d="m-2.611641 15.99895h85.223281c.76597 0 1.38261.72808 1.38261 1.63246v72.73718c0 .90439-.61664 1.63247-1.38261 1.63247h-85.223281c-.765966 0-1.38261-.72808-1.38261-1.63247v-72.73718c0-.90438.616644-1.63246 1.38261-1.63246z" style="opacity:.4;fill:none;stroke:#000;stroke-width:4;stroke-linecap:round;stroke-linejoin:round;stroke-dashoffset:4;filter:url(#b)"/><path d="m-2.617195 16h85.234385c.76607 0 1.38281.72806 1.38281 1.63242v72.73516h-88.000003v-72.73516c0-.90436.616732-1.63242 1.382808-1.63242z" fill="url(#c)"/><path d="m52.54186 30.93328v-1.92136z" fill="#fff" fill-opacity=".756881"/><path d="m-2.625 16c-.766076 0-1.375.72064-1.375 1.625v72.75c0 .90436.608924 1.625 1.375 1.625h85.25c.76608 0 1.375-.72064 1.375-1.625v-72.75c0-.90436-.60892-1.625-1.375-1.625zm.9375 2.4375h83.375c.72777 0 1.3125.68271 1.3125 1.53125v69.5c0 .84854-.58473 1.53125-1.3125 1.53125h-83.375c-.727772 0-1.3125-.68271-1.3125-1.53125v-69.5c0-.84854.584728-1.53125 1.3125-1.53125z" fill="url(#d)"/><path d="m-4 36h88v56h-88z" fill="#fff"/><path d="m-4 60h88v3.999996h-88z" fill="url(#a)" fill-rule="evenodd"/></g></svg>

<?xml version="1.0" encoding="UTF-8" standalone="no"?>
<svg
   xmlns:dc="http://purl.org/dc/elements/1.1/"
   xmlns:cc="http://creativecommons.org/ns#"
   xmlns:rdf="http://www.w3.org/1999/02/22-rdf-syntax-ns#"
   xmlns:svg="http://www.w3.org/2000/svg"
   xmlns="http://www.w3.org/2000/svg"
   xmlns:xlink="http://www.w3.org/1999/xlink"
   xmlns:sodipodi="http://sodipodi.sourceforge.net/DTD/sodipodi-0.dtd"
   xmlns:inkscape="http://www.inkscape.org/namespaces/inkscape"
   height="24"
   width="24"
   version="1.1"
   id="svg90"
   sodipodi:docname="lc_splitwindow.svg"
   inkscape:version="0.92.4 (unknown)"
   inkscape:export-filename="/home/rizmut/Dokumen/Rizmut/Github/libreoffice-style-karasa-jaga/build/next/cmd/lc_splitwindow.png"
   inkscape:export-xdpi="96"
   inkscape:export-ydpi="96">
  <metadata
     id="metadata96">
    <rdf:RDF>
      <cc:Work
         rdf:about="">
        <dc:format>image/svg+xml</dc:format>
        <dc:type
           rdf:resource="http://purl.org/dc/dcmitype/StillImage" />
        <dc:title></dc:title>
      </cc:Work>
    </rdf:RDF>
  </metadata>
  <defs
     id="defs94">
    <linearGradient
       inkscape:collect="always"
       xlink:href="#linearGradient3417"
       id="linearGradient3415"
       x1="137.25784"
       y1="260.75122"
       x2="137.25784"
       y2="312.87741"
       gradientUnits="userSpaceOnUse"
       gradientTransform="matrix(22,0,0,0.07307694,-2371.8302,41.135978)" />
    <linearGradient
       id="linearGradient3417">
      <stop
         style="stop-color:#b3b3b6;stop-opacity:1;"
         offset="0"
         id="stop3419" />
      <stop
         style="stop-color:#cecece;stop-opacity:1;"
         offset="1"
         id="stop3421" />
    </linearGradient>
  </defs>
  <sodipodi:namedview
     pagecolor="#ffffff"
     bordercolor="#666666"
     borderopacity="1"
     objecttolerance="10"
     gridtolerance="10"
     guidetolerance="10"
     inkscape:pageopacity="0"
     inkscape:pageshadow="2"
     inkscape:window-width="1366"
     inkscape:window-height="714"
     id="namedview92"
     showgrid="true"
     inkscape:zoom="13.906433"
     inkscape:cx="19.808824"
     inkscape:cy="4.6512211"
     inkscape:window-x="0"
     inkscape:window-y="28"
     inkscape:window-maximized="1"
     inkscape:current-layer="svg90">
    <inkscape:grid
       type="xygrid"
       id="grid903" />
  </sodipodi:namedview>
  <filter
     id="a">
    <feGaussianBlur
       stdDeviation="1.04"
       id="feGaussianBlur2" />
  </filter>
  <filter
     id="b">
    <feGaussianBlur
       stdDeviation="2.8805897"
       id="feGaussianBlur5" />
  </filter>
  <filter
     id="c">
    <feGaussianBlur
       stdDeviation="1.5999062"
       id="feGaussianBlur8" />
  </filter>
  <linearGradient
     id="d"
     gradientTransform="matrix(0.08097133,0,0,0.117107,-1.25515,-48.3532)"
     gradientUnits="userSpaceOnUse"
     x1="399.77466"
     x2="399.77466"
     y1="731.09662"
     y2="480.60214">
    <stop
       offset="0"
       stop-color="#cbcbcd"
       id="stop11" />
    <stop
       offset=".5"
       stop-color="#e0e0e2"
       id="stop13" />
    <stop
       offset="1"
       stop-color="#f2f2f2"
       id="stop15" />
  </linearGradient>
  <linearGradient
     id="e"
     gradientTransform="matrix(0.08097133,0,0,0.117107,78.3735,188.5229)"
     gradientUnits="userSpaceOnUse"
     x1="-333.0289"
     x2="-333.0289"
     y1="-1473.6504"
     y2="-776.61371">
    <stop
       offset="0"
       stop-color="#fff"
       id="stop18" />
    <stop
       offset=".49140647"
       stop-color="#fff"
       id="stop20" />
    <stop
       offset="1"
       stop-color="#dcdcdc"
       id="stop22" />
  </linearGradient>
  <radialGradient
     id="f"
     cx="343.99899"
     cy="92"
     gradientTransform="matrix(.48644982 0 0 .48644947 -228.85723 -373.36508)"
     gradientUnits="userSpaceOnUse"
     r="36">
    <stop
       offset="0"
       stop-color="#e5ff00"
       id="stop25" />
    <stop
       offset="1"
       stop-color="#bff500"
       stop-opacity="0"
       id="stop27" />
  </radialGradient>
  <linearGradient
     id="g"
     gradientUnits="userSpaceOnUse"
     x1="328.12448"
     x2="336.98077"
     y1="120.81158"
     y2="87.759453">
    <stop
       offset="0"
       stop-color="#96ff00"
       id="stop30" />
    <stop
       offset="1"
       stop-color="#609800"
       id="stop32" />
  </linearGradient>
  <linearGradient
     id="h"
     gradientTransform="matrix(0 .49018718 -.49018752 0 79.769764 322.22969)"
     gradientUnits="userSpaceOnUse"
     x1="-80.00296"
     x2="-45.096584"
     y1="-131.93112"
     y2="-131.93112">
    <stop
       offset="0"
       stop-color="#fff"
       id="stop35" />
    <stop
       offset="1"
       stop-color="#fff"
       stop-opacity="0"
       id="stop37" />
  </linearGradient>
  <linearGradient
     id="i"
     gradientUnits="userSpaceOnUse"
     x1="122.00004"
     x2="122.00004"
     y1="61.999996"
     y2="9.932843">
    <stop
       offset="0"
       stop-color="#004d00"
       stop-opacity="0"
       id="stop40" />
    <stop
       offset=".5"
       stop-color="#004d00"
       id="stop42" />
    <stop
       offset="1"
       stop-color="#004d00"
       stop-opacity="0"
       id="stop44" />
  </linearGradient>
  <clipPath
     id="j">
    <circle
       cx="343.91208"
       cy="92.325096"
       r="36"
       transform="matrix(.86602539 .50000002 .49999965 -.86602561 0 0)"
       id="circle47" />
  </clipPath>
  <radialGradient
     id="k"
     cx="-55.685837"
     cy="-347.11612"
     gradientTransform="matrix(-.92598472 -.24811683 .26893091 -1.0036639 -15.263579 -707.47819)"
     gradientUnits="userSpaceOnUse"
     r="22.14249">
    <stop
       offset="0"
       stop-color="#82c133"
       id="stop50" />
    <stop
       offset="1"
       stop-color="#72b028"
       id="stop52" />
  </radialGradient>
  <filter
     id="l"
     color-interpolation-filters="sRGB"
     height="1.072142"
     width="1.071866"
     x="-.035933"
     y="-.036071">
    <feGaussianBlur
       stdDeviation=".66434216"
       id="feGaussianBlur55" />
  </filter>
  <g
     transform="matrix(0.25,0,0,0.25,2,-1)"
     id="g68">
    <path
       d="M -2.611641,15.99895 H 82.61164 c 0.76597,0 1.38261,0.72808 1.38261,1.63246 v 72.73718 c 0,0.90439 -0.61664,1.63247 -1.38261,1.63247 H -2.611641 c -0.765966,0 -1.38261,-0.72808 -1.38261,-1.63247 V 17.63141 c 0,-0.90438 0.616644,-1.63246 1.38261,-1.63246 z"
       style="opacity:0.4;fill:none;stroke:#000000;stroke-width:4;stroke-linecap:round;stroke-linejoin:round;stroke-dashoffset:4;filter:url(#c)"
       id="path58"
       inkscape:connector-curvature="0"
       sodipodi:nodetypes="sssssssss" />
    <path
       d="M -2.617195,16 H 82.61719 C 83.38326,16 84,16.72806 84,17.63242 V 90.36758 H -4.000003 V 17.63242 C -4.000003,16.72806 -3.383271,16 -2.617195,16 Z"
       id="path60"
       inkscape:connector-curvature="0"
       style="fill:url(#d)"
       sodipodi:nodetypes="sssccss" />
    <path
       d="M 52.54186,30.93328 V 29.01192 Z"
       id="path62"
       inkscape:connector-curvature="0"
       style="fill:#ffffff;fill-opacity:0.756881"
       sodipodi:nodetypes="ccc" />
    <path
       d="M -2.625,16 C -3.391076,16 -4,16.72064 -4,17.625 v 72.75 C -4,91.27936 -3.391076,92 -2.625,92 h 85.25 C 83.39108,92 84,91.27936 84,90.375 V 17.625 C 84,16.72064 83.39108,16 82.625,16 Z m 0.9375,2.4375 h 83.375 c 0.72777,0 1.3125,0.68271 1.3125,1.53125 v 69.5 C 83,90.31729 82.41527,91 81.6875,91 H -1.6875 C -2.415272,91 -3,90.31729 -3,89.46875 v -69.5 c 0,-0.84854 0.584728,-1.53125 1.3125,-1.53125 z"
       id="path64"
       inkscape:connector-curvature="0"
       style="fill:url(#e)"
       sodipodi:nodetypes="ssssssssssssssssss" />
    <path
       d="M -4,36 H 84 V 92 H -4 Z"
       id="path66"
       inkscape:connector-curvature="0"
       style="fill:#ffffff"
       sodipodi:nodetypes="ccccc" />
    <rect
       style="opacity:1;fill:url(#linearGradient3415);fill-opacity:1;fill-rule:evenodd;stroke:none;stroke-width:0.51112622;stroke-linecap:butt;stroke-linejoin:round;stroke-miterlimit:4;stroke-dasharray:none;stroke-opacity:1"
       id="rect3286"
       width="88"
       height="3.9999962"
       x="-4"
       y="60" />
  </g>
</svg>
